Obsidian/actions/24s/transform-move-horizontal.svg

<svg height="24" viewBox="0 0 24 24" width="24" xmlns="http://www.w3.org/2000/svg"><g fill="#bebebe"><path d="m.54882812 2.0078125a.50005.50005 0 0 0 -.49999999.5v7.9921875a.50005.50005 0 0 0 .49999999.5h8.97460938a.50005.50005 0 0 0 .5000005-.5v-7.9921875a.50005.50005 0 0 0 -.5000005-.5zm13.97460988 0a.50005.50005 0 0 0 -.5.5v7.9921875a.50005.50005 0 0 0 .5.5h8.976562a.50005.50005 0 0 0 .5-.5v-7.9921875a.50005.50005 0 0 0 -.5-.5zm-12.9843755.9960937h6.9980469c.2761 0 .5.2239.5.5v5.9941407c0 .2762-.2239.5-.5.5h-6.9980469c-.2761 0-.5-.2238-.5-.5v-5.9941407c0-.2761.2239-.5.5-.5zm13.9765625 0h6.998047c.276 0 .5.2239.5.5v5.9941407c0 .2762-.224.5-.5.5h-6.998047c-.277 0-.5-.2238-.5-.5v-5.9941407c0-.2761.223-.5.5-.5zm1.507813 8.9960938v2h-12.0000005v1h12.0000005v2l3-2.5z"/><path d="m1.0488281 3.0078125v6.9921875h7.9746094v-6.9921875zm13.9746099 0v6.9921875h7.976562v-6.9921875z" opacity=".3"/></g></svg>

<svg xmlns="http://www.w3.org/2000/svg" width="24" height="24" viewBox="0 0 24 24">
 <defs>
  <style id="current-color-scheme" type="text/css">
   .ColorScheme-Text { color:#bebebe; } .ColorScheme-Highlight { color:#4285f4; }
  </style>
 </defs>
 <path style="fill:currentColor" class="ColorScheme-Text" d="M 0.54882812 2.0078125 A 0.50005 0.50005 0 0 0 0.048828125 2.5078125 L 0.048828125 10.5 A 0.50005 0.50005 0 0 0 0.54882812 11 L 9.5234375 11 A 0.50005 0.50005 0 0 0 10.023438 10.5 L 10.023438 2.5078125 A 0.50005 0.50005 0 0 0 9.5234375 2.0078125 L 0.54882812 2.0078125 z M 14.523438 2.0078125 A 0.50005 0.50005 0 0 0 14.023438 2.5078125 L 14.023438 10.5 A 0.50005 0.50005 0 0 0 14.523438 11 L 23.5 11 A 0.50005 0.50005 0 0 0 24 10.5 L 24 2.5078125 A 0.50005 0.50005 0 0 0 23.5 2.0078125 L 14.523438 2.0078125 z M 1.5390625 3.0039062 L 8.5371094 3.0039062 C 8.8132094 3.0039062 9.0371094 3.2278062 9.0371094 3.5039062 L 9.0371094 9.4980469 C 9.0371094 9.7742469 8.8132094 9.9980469 8.5371094 9.9980469 L 1.5390625 9.9980469 C 1.2629625 9.9980469 1.0390625 9.7742469 1.0390625 9.4980469 L 1.0390625 3.5039062 C 1.0390625 3.2278062 1.2629625 3.0039062 1.5390625 3.0039062 z M 15.515625 3.0039062 L 22.513672 3.0039062 C 22.789672 3.0039062 23.013672 3.2278062 23.013672 3.5039062 L 23.013672 9.4980469 C 23.013672 9.7742469 22.789672 9.9980469 22.513672 9.9980469 L 15.515625 9.9980469 C 15.238625 9.9980469 15.015625 9.7742469 15.015625 9.4980469 L 15.015625 3.5039062 C 15.015625 3.2278062 15.238625 3.0039062 15.515625 3.0039062 z M 17.023438 12 L 17.023438 14 L 5.0234375 14 L 5.0234375 15 L 17.023438 15 L 17.023438 17 L 20.023438 14.5 L 17.023438 12 z"/>
 <path style="fill:currentColor;opacity:0.3" class="ColorScheme-Text" d="M 1.0488281 3.0078125 L 1.0488281 10 L 9.0234375 10 L 9.0234375 3.0078125 L 1.0488281 3.0078125 z M 15.023438 3.0078125 L 15.023438 10 L 23 10 L 23 3.0078125 L 15.023438 3.0078125 z"/>
</svg>
